usr/share/icons/biglinux-icons-material/scalable/places/folder-git.svg

<?xml version="1.0" encoding="UTF-8" standalone="no"?>
<svg
   width="24"
   height="24"
   viewBox="0 0 24 24"
   fill="none"
   version="1.1"
   id="svg18"
   sodipodi:docname="folder-git.svg"
   xml:space="preserve"
   inkscape:version="1.3 (0e150ed6c4, 2023-07-21)"
   xmlns:inkscape="http://www.inkscape.org/namespaces/inkscape"
   xmlns:sodipodi="http://sodipodi.sourceforge.net/DTD/sodipodi-0.dtd"
   xmlns="http://www.w3.org/2000/svg"
   xmlns:svg="http://www.w3.org/2000/svg"><sodipodi:namedview
     id="namedview18"
     pagecolor="#ffffff"
     bordercolor="#000000"
     borderopacity="0.25"
     inkscape:showpageshadow="2"
     inkscape:pageopacity="0.0"
     inkscape:pagecheckerboard="0"
     inkscape:deskcolor="#d1d1d1"
     inkscape:zoom="33.791667"
     inkscape:cx="11.348952"
     inkscape:cy="9.7509248"
     inkscape:window-width="2560"
     inkscape:window-height="998"
     inkscape:window-x="0"
     inkscape:window-y="0"
     inkscape:window-maximized="1"
     inkscape:current-layer="svg18" /><rect
     opacity="0.8125"
     x="1"
     y="1"
     width="22"
     height="22"
     rx="6.6"
     fill="url(#paint0_linear_211_199)"
     id="rect1" /><rect
     opacity="0.125"
     x="3"
     y="2.25"
     width="18"
     height="18"
     rx="4.4"
     fill="url(#paint1_linear_211_199)"
     fill-opacity="0.875"
     id="rect2" /><rect
     x="3.25"
     y="3.25"
     width="17.5"
     height="17.5"
     rx="4.15"
     fill="#CCCCCC"
     stroke="url(#paint2_linear_211_199)"
     stroke-width="0.5"
     id="rect3" /><path
     opacity="0.125"
     d="M1 7.50781C1 5.84664 2.34664 4.5 4.00781 4.5H8.19048C9.265 4.5 10.3068 4.86994 11.1406 5.54762V5.54762C11.9745 6.2253 13.0162 6.59524 14.0908 6.59524H19.9922C21.6534 6.59524 23 7.94188 23 9.60305V15.5C23 19.1451 20.0451 22.1 16.4 22.1H7.6C3.95492 22.1 1 19.1451 1 15.5V7.50781Z"
     fill="url(#paint3_linear_211_199)"
     fill-opacity="0.875"
     id="path3" /><g
     opacity="0.875"
     id="g5"><path
       d="M1 8.40782C1 6.74665 2.34664 5.4 4.00781 5.4H8.19048C9.265 5.4 10.3068 5.76994 11.1406 6.44762V6.44762C11.9745 7.1253 13.0162 7.49524 14.0908 7.49524H19.9922C21.6534 7.49524 23 8.84188 23 10.5031V16.4C23 20.0451 20.0451 23 16.4 23H7.6C3.95492 23 1 20.0451 1 16.4V8.40782Z"
       fill="url(#paint4_linear_211_199)"
       id="path4" /><path
       d="M22.625 10.5031V16.4C22.625 19.838 19.838 22.625 16.4 22.625H7.6C4.16203 22.625 1.375 19.838 1.375 16.4V8.40782C1.375 6.95375 2.55375 5.775 4.00781 5.775H8.19048C9.17886 5.775 10.1371 6.11528 10.9041 6.73864C11.8048 7.47065 12.9301 7.87024 14.0908 7.87024H19.9922C21.4462 7.87024 22.625 9.04899 22.625 10.5031Z"
       stroke="url(#paint5_linear_211_199)"
       stroke-opacity="0.375"
       stroke-width="0.75"
       stroke-linejoin="round"
       id="path5" /></g><path
     opacity="0.75"
     d="M 7.672319,8.3 7.263,8.709319 8.660614,10.106933 c -0.156457,0.236867 -0.239827,0.514434 -0.239717,0.798325 8.2e-5,0.687684 0.484073,1.2804 1.157896,1.417992 v 4.114825 c -0.672576,0.137317 -1.15621,0.728108 -1.157896,1.4146 9e-6,0.799333 0.64801,1.447325 1.447361,1.447325 0.799334,0 1.447325,-0.647992 1.447325,-1.447325 -0.0016,-0.686492 -0.485283,-1.277283 -1.157841,-1.4146 V 12.32325 c 0.1815,-0.03694 0.3542,-0.10835 0.50875,-0.210375 l 2.625608,2.625608 c -0.156383,0.236867 -0.2398,0.514434 -0.239708,0.798325 0,0.799334 0.647991,1.447325 1.447416,1.447325 0.799334,0 1.447325,-0.647991 1.447325,-1.447325 0,-0.799333 -0.647991,-1.447325 -1.447325,-1.447325 -0.283891,-1.83e-4 -0.561458,0.08323 -0.798325,0.239709 l -2.625608,-2.625609 c 0.156475,-0.236866 0.2398,-0.514525 0.239708,-0.798325 0,-0.799351 -0.647991,-1.447361 -1.447325,-1.44738 -0.283864,-1.1e-4 -0.561476,0.08325 -0.798325,0.239709 z"
     fill="#198cff"
     id="path18"
     style="opacity:0.15;fill:#1a1a1a;stroke-width:0.916667" /><path
     opacity="0.75"
     d="M 8.0672525,8 7.6579333,8.4093192 9.0555475,9.8069333 C 8.8990908,10.0438 8.81572,10.321367 8.81583,10.605258 c 8.25e-5,0.687684 0.4840733,1.2804 1.1578966,1.417992 v 4.114825 C 9.30115,16.275392 8.8175166,16.866183 8.81583,17.552675 8.8158391,18.352008 9.46384,19 10.263192,19 c 0.799334,0 1.447324,-0.647992 1.447324,-1.447325 -0.0016,-0.686492 -0.485283,-1.277283 -1.157841,-1.4146 V 12.02325 c 0.1815,-0.03694 0.354201,-0.10835 0.508751,-0.210375 l 2.625608,2.625608 c -0.156383,0.236867 -0.239801,0.514434 -0.239708,0.798325 0,0.799334 0.64799,1.447325 1.447416,1.447325 0.799334,0 1.447325,-0.647991 1.447325,-1.447325 0,-0.799333 -0.647991,-1.447325 -1.447325,-1.447325 -0.283891,-1.83e-4 -0.561458,0.08323 -0.798325,0.239709 l -2.625608,-2.625609 c 0.156475,-0.236866 0.2398,-0.514525 0.239708,-0.798325 0,-0.7993513 -0.647991,-1.4473613 -1.447325,-1.4473797 -0.2838645,-1.1e-4 -0.561477,0.083252 -0.7983254,0.2397084 z"
     fill="#198cff"
     id="path6"
     style="opacity:1;fill:#4495dd;fill-opacity:1;stroke-width:0.916667" /><defs
     id="defs18"><linearGradient
       id="paint0_linear_211_199"
       x1="23"
       y1="0.999999"
       x2="1"
       y2="12"
       gradientUnits="userSpaceOnUse"><stop
         stop-color="#E3C880"
         id="stop6" /><stop
         offset="1"
         stop-color="#6F5C38"
         id="stop7" /></linearGradient><linearGradient
       id="paint1_linear_211_199"
       x1="21"
       y1="4"
       x2="3"
       y2="4"
       gradientUnits="userSpaceOnUse"><stop
         stop-opacity="0.5"
         id="stop8" /><stop
         offset="0.890123"
         id="stop9" /><stop
         offset="1"
         stop-opacity="0"
         id="stop10" /></linearGradient><linearGradient
       id="paint2_linear_211_199"
       x1="12"
       y1="3"
       x2="11.5"
       y2="8"
       gradientUnits="userSpaceOnUse"><stop
         stop-color="#DDDDDD"
         id="stop11" /><stop
         offset="1"
         stop-color="#CCCCCC"
         stop-opacity="0"
         id="stop12" /></linearGradient><linearGradient
       id="paint3_linear_211_199"
       x1="23"
       y1="9"
       x2="1.01236"
       y2="9.52141"
       gradientUnits="userSpaceOnUse"><stop
         stop-opacity="0.5"
         id="stop13" /><stop
         offset="1"
         id="stop14" /></linearGradient><linearGradient
       id="paint4_linear_211_199"
       x1="23"
       y1="5.4"
       x2="1.42949"
       y2="23.5115"
       gradientUnits="userSpaceOnUse"><stop
         stop-color="#FFE795"
         id="stop15" /><stop
         offset="1"
         stop-color="#7A653E"
         id="stop16" /></linearGradient><linearGradient
       id="paint5_linear_211_199"
       x1="15"
       y1="5.5"
       x2="5.5"
       y2="19.5"
       gradientUnits="userSpaceOnUse"><stop
         stop-color="#FFE795"
         id="stop17" /><stop
         offset="1"
         stop-color="#7A653E"
         id="stop18" /></linearGradient></defs></svg>

<svg xmlns="http://www.w3.org/2000/svg" xml:space="preserve" width="24" height="24" fill="none"><rect width="22" height="22" x="1" y="1" fill="url(#a)" opacity=".813" rx="6.6"/><rect width="18" height="18" x="3" y="2.25" fill="url(#b)" fill-opacity=".875" opacity=".125" rx="4.4"/><rect width="17.5" height="17.5" x="3.25" y="3.25" fill="#CCC" stroke="url(#c)" stroke-width=".5" rx="4.15"/><path fill="url(#d)" fill-opacity=".875" d="M1 7.508A3.008 3.008 0 0 1 4.008 4.5H8.19c1.075 0 2.117.37 2.95 1.048a4.678 4.678 0 0 0 2.95 1.047h5.902A3.008 3.008 0 0 1 23 9.603V15.5a6.6 6.6 0 0 1-6.6 6.6H7.6A6.6 6.6 0 0 1 1 15.5V7.508Z" opacity=".125"/><g opacity=".875"><path fill="url(#e)" d="M1 8.408A3.008 3.008 0 0 1 4.008 5.4H8.19c1.075 0 2.117.37 2.95 1.048a4.678 4.678 0 0 0 2.95 1.047h5.902A3.008 3.008 0 0 1 23 10.503V16.4a6.6 6.6 0 0 1-6.6 6.6H7.6A6.6 6.6 0 0 1 1 16.4V8.408Z"/><path stroke="url(#f)" stroke-linejoin="round" stroke-opacity=".375" stroke-width=".75" d="M22.625 10.503V16.4a6.225 6.225 0 0 1-6.225 6.225H7.6A6.225 6.225 0 0 1 1.375 16.4V8.408a2.633 2.633 0 0 1 2.633-2.633H8.19c.989 0 1.947.34 2.714.964a5.053 5.053 0 0 0 3.187 1.131h5.901a2.633 2.633 0 0 1 2.633 2.633Z"/></g><path fill="#198cff" d="m7.672 8.3-.409.41 1.398 1.397a1.447 1.447 0 0 0 .918 2.216v4.115a1.447 1.447 0 0 0-1.158 1.415 1.447 1.447 0 0 0 2.895 0 1.447 1.447 0 0 0-1.158-1.415v-4.115c.181-.037.354-.108.508-.21l2.626 2.625a1.448 1.448 0 1 0 .41-.409l-2.626-2.625A1.448 1.448 0 0 0 9.07 9.698z" opacity=".75" style="opacity:.15;fill:#1a1a1a;stroke-width:.916667"/><path fill="#198cff" d="m8.067 8-.41.41 1.399 1.397a1.447 1.447 0 0 0 .918 2.216v4.115a1.447 1.447 0 0 0-1.158 1.415 1.447 1.447 0 0 0 2.895 0 1.447 1.447 0 0 0-1.158-1.415v-4.115c.181-.037.354-.108.508-.21l2.626 2.625a1.448 1.448 0 1 0 .41-.409l-2.626-2.625a1.448 1.448 0 0 0-2.006-2.006z" opacity=".75" style="opacity:1;fill:#4495dd;fill-opacity:1;stroke-width:.916667"/><defs><linearGradient id="a" x1="23" x2="1" y1="1" y2="12" gradientUnits="userSpaceOnUse"><stop stop-color="#E3C880"/><stop offset="1" stop-color="#6F5C38"/></linearGradient><linearGradient id="b" x1="21" x2="3" y1="4" y2="4" gradientUnits="userSpaceOnUse"><stop stop-opacity=".5"/><stop offset=".89"/><stop offset="1" stop-opacity="0"/></linearGradient><linearGradient id="c" x1="12" x2="11.5" y1="3" y2="8" gradientUnits="userSpaceOnUse"><stop stop-color="#DDD"/><stop offset="1" stop-color="#CCC" stop-opacity="0"/></linearGradient><linearGradient id="d" x1="23" x2="1.012" y1="9" y2="9.521" gradientUnits="userSpaceOnUse"><stop stop-opacity=".5"/><stop offset="1"/></linearGradient><linearGradient id="e" x1="23" x2="1.429" y1="5.4" y2="23.512" gradientUnits="userSpaceOnUse"><stop stop-color="#FFE795"/><stop offset="1" stop-color="#7A653E"/></linearGradient><linearGradient id="f" x1="15" x2="5.5" y1="5.5" y2="19.5" gradientUnits="userSpaceOnUse"><stop stop-color="#FFE795"/><stop offset="1" stop-color="#7A653E"/></linearGradient></defs></svg>
